src/components/Home/icons/diagnostics.svg

<svg width="21" height="20" viewBox="0 0 21 20" fill="none" xmlns="http://www.w3.org/2000/svg">
<g clip-path="url(#clip0_24_1099)">
<path fill-rule="evenodd" clip-rule="evenodd" d="M4.3043 4.15351C4.62277 3.76812 5.25971 3.57543 5.73742 3.5112C8.92213 3.02947 11.9158 3.02947 15.1005 3.5112C15.5463 3.57543 16.2151 3.76812 16.5017 4.15351C16.8521 5.30966 17.1705 6.46582 17.489 7.65409C17.6482 7.52563 17.8393 7.46139 18.0623 7.46139H19.4317C20.0049 7.46139 20.4189 7.91101 20.4189 8.45697C20.4189 8.97082 19.9731 9.42043 19.4317 9.42043H18.7947C18.9858 9.83793 19.1451 10.416 19.1451 11.2831C19.1769 12.9531 19.1769 14.6231 19.1769 16.2931C19.1769 16.6143 18.9221 16.8391 18.6355 16.8391H16.1514C15.8648 16.8391 15.61 16.6143 15.61 16.2931C15.61 16.0683 15.61 15.8435 15.61 15.6187H5.22786C5.22786 15.8435 5.22786 16.0683 5.22786 16.2931C5.22786 16.6143 4.97309 16.8391 4.65461 16.8391H2.20238C1.88391 16.8391 1.62914 16.6143 1.62914 16.2931C1.62914 14.6231 1.66098 12.9531 1.66098 11.2831C1.66098 10.416 1.82022 9.83793 2.0113 9.42043H1.37436C0.864805 9.42043 0.418945 8.97082 0.418945 8.45697C0.418945 7.91101 0.832958 7.46139 1.37436 7.46139H2.77563C2.96672 7.46139 3.1578 7.52563 3.31703 7.65409C3.63551 6.46582 3.95398 5.30966 4.3043 4.15351ZM8.1578 12.921H12.6801C12.9667 12.921 13.1896 13.1458 13.1896 13.4349C13.1896 13.7239 12.9667 13.9487 12.6801 13.9487H8.1578C7.87117 13.9487 7.64824 13.7239 7.64824 13.4349C7.64824 13.1458 7.87117 12.921 8.1578 12.921ZM5.22786 4.60312C4.97309 5.56659 4.71831 6.56216 4.43168 7.55774C8.31703 7.14024 12.489 7.14024 16.3744 7.55774C16.1196 6.56216 15.833 5.56659 15.5782 4.60312C12.1705 3.99293 8.66735 3.99293 5.22786 4.60312ZM16.1833 10.0306C15.5782 10.0306 15.0686 10.5124 15.0686 11.1225C15.0686 11.7327 15.5782 12.2466 16.1833 12.2466C16.7884 12.2466 17.2661 11.7327 17.2661 11.1225C17.2661 10.5124 16.7884 10.0306 16.1833 10.0306ZM4.65461 10.0306C5.25971 10.0306 5.73742 10.5124 5.73742 11.1225C5.73742 11.7327 5.25971 12.2466 4.65461 12.2466C4.04952 12.2466 3.57181 11.7327 3.57181 11.1225C3.57181 10.5124 4.04952 10.0306 4.65461 10.0306Z" fill="white"/>
</g>
<defs>
<clipPath id="clip0_24_1099">
<rect width="20" height="20" fill="white" transform="translate(0.418945)"/>
</clipPath>
</defs>
</svg>

<svg xmlns="http://www.w3.org/2000/svg" width="21" height="20" fill="none">
  <g clip-path="url(#a)">
    <path fill="#fff" fill-rule="evenodd" d="M4.304 4.154c.319-.386.956-.579 1.433-.643a30.511 30.511 0 0 1 9.364 0c.445.064 1.114.257 1.4.643.351 1.156.67 2.312.988 3.5a.884.884 0 0 1 .573-.193h1.37c.573 0 .987.45.987.996 0 .514-.446.963-.987.963h-.637c.19.418.35.996.35 1.863.032 1.67.032 3.34.032 5.01a.539.539 0 0 1-.541.546H16.15a.539.539 0 0 1-.541-.546v-.674H5.228v.674c0 .321-.255.546-.573.546H2.202c-.318 0-.573-.225-.573-.546 0-1.67.032-3.34.032-5.01 0-.867.16-1.445.35-1.863h-.637c-.51 0-.955-.45-.955-.963 0-.546.414-.996.955-.996h1.402a.86.86 0 0 1 .541.193c.319-1.188.637-2.344.987-3.5Zm3.854 8.767h4.522c.287 0 .51.225.51.514a.505.505 0 0 1-.51.514H8.158a.505.505 0 0 1-.51-.514c0-.29.223-.514.51-.514Zm-2.93-8.318c-.255.964-.51 1.96-.796 2.955a57.094 57.094 0 0 1 11.942 0c-.254-.996-.541-1.991-.796-2.955a29.49 29.49 0 0 0-10.35 0Zm10.955 5.428c-.605 0-1.114.481-1.114 1.091s.51 1.125 1.114 1.125c.605 0 1.083-.514 1.083-1.124 0-.61-.478-1.092-1.083-1.092Zm-11.528 0c.605 0 1.082.481 1.082 1.091s-.477 1.125-1.082 1.125c-.605 0-1.083-.514-1.083-1.124 0-.61.478-1.092 1.083-1.092Z" clip-rule="evenodd"/>
  </g>
  <defs>
    <clipPath id="a">
      <path fill="#fff" d="M.419 0h20v20h-20z"/>
    </clipPath>
  </defs>
</svg>
